X: 30281
T: MISS CARTWRIGHT'S WALTZ
C:
%R: waltz
B: Elias Howe "The Musician's Companion" Part 3 1844 p.23 #1
S: http://imslp.org/wiki/The_Musician's_Companion_(Howe,_Elias)
S: https://archive.org/stream/firstthirdpartof03howe/#page/66/mode/1up
Z: 2016 John Chambers <jc:trillian.mit.edu>
M: 3/8
L: 1/16
K: Bb
% - - - - - - - - - - - - - - - - - - - - - - - - -
f2 |\
(d2B2).f2 | (d2B2).b2 | (ba).g.f.a.g | (b2f2).f2 |\
(d2B2).f2 | (d2B2).f2 | (e>g)(c>e)(A>c) | B4 :|
|: (=e>f) |\
.[c2A2].[c2A2] e<f | .[d2B2].[d2B2] e<f | .c2.c2 f_e | d2d2 a<b |\
.f2.f2 (a<b) | g2g2 ce | (de).f.d.c.A | B4 :|
K: Eb
B2 |:\
B4 G2 | B4 G2 | BAGABA | G2E2B2 |\
e2d2c2 | B2A2G2 |[1 F2FGAF | G2B2e2 :|2 F2FGFG | E4 :|
% - - - - - - - - - - - - - - - - - - - - - - - - -


